!!!OTL: Frau von Weissenburg.
!!!OTL-incipit: 'Hans, sattle mir den Gaul,
!!!ARE: Europa, Mitteleuropa, Deutschland (), Provinz Brandenburg ?
!!!YOR: 1, S. 306
!!    1807 gedruckt in Berlin
!!!SCT: Q0030B
!!!TXL: @@DE
!!!YEM: Copyright 1995, estate of Helmut Schaffrath.
**kern	**text
*ICvox	*
*M4/8	*
*k[]	*
*C:	*
{4cc	1._'Hans,
=1	=1
8cc	ſatt-
8g	-le
8a	mir
8g	den
=2	=2
4cc}	Gaul,
{4ee	Hans,
=3	=3
8dd	ſatt-
8cc	-le
8b	hübſch
8dd	und
=4	=4
4g	fein
8r}	.
{8cc	wir
=5	=5
8cc	wol-
8g	-len
8a	beid'
16eL	aus-
16fJ	.
=6	=6
4g	-rei-
8e}	-ten;
{8g	vor
=7	=7
8cc	Klaſch-
8g	-toch
8e	blei-
8d	-be
=8	=8
4c}	ſtehn!'
==	==
!!!AGN: Ballade, Ehebruch, Mord, Moral
!!!ONB: ESAC (Essen Associative Code) Database: BALLADE
!!!AMT: simple quadruple
!!!AIN: vox
!!!EED: Helmut Schaffrath
!!!EEV: 1.0
!!@@COMMENT:"Mel. : Büſching-Hagen, 1807, Melodienband S. 13 ʒu Nr. 54.
!!Text: Bothe, Alm. (1804) S. 52."
!!@@END:
!!!source: Deutsche Volkslieder mit ihren Melodien. Balladen. Herausgegeben vom Deutschen Volksliedarchiv. Erster Band Balladen. Berlin und Leipzig 1935.
!!!page: 306
!!!ENC: Anna Maria Matuszewska
!!!EEV: 2025/02/14
*-	*-
